src/assets/img/icons/duotone-icons/Food/Bread.svg

<?xml version="1.0" encoding="UTF-8"?>
<svg width="24px" height="24px" viewBox="0 0 24 24" version="1.1" xmlns="http://www.w3.org/2000/svg" xmlns:xlink="http://www.w3.org/1999/xlink">
    <!-- Generator: Sketch 52.2 (67145) - http://www.bohemiancoding.com/sketch -->
    <title>Stockholm-icons / Food / Bread</title>
    <desc>Created with Sketch.</desc>
    <g id="Stockholm-icons-/-Food-/-Bread" stroke="none" stroke-width="1" fill="none" fill-rule="evenodd">
        <rect id="bound" x="0" y="0" width="24" height="24"></rect>
        <path d="M21,10.6631844 L21,19 C21,20.1045695 20.1045695,21 19,21 L9,21 C7.8954305,21 7,20.1045695 7,19 L7,10.6631844 C5.81752633,10.1014525 5,8.89619798 5,7.5 C5,5.56700338 6.56700338,4 8.5,4 L19.5,4 C21.4329966,4 23,5.56700338 23,7.5 C23,8.89619798 22.1824737,10.1014525 21,10.6631844 Z" id="Combined-Shape-Copy" fill="#335EEA" opacity="0.3"></path>
        <path d="M17,10.6631844 L17,19 C17,20.1045695 16.1045695,21 15,21 L5,21 C3.8954305,21 3,20.1045695 3,19 L3,10.6631844 C1.81752633,10.1014525 1,8.89619798 1,7.5 C1,5.56700338 2.56700338,4 4.5,4 L15.5,4 C17.4329966,4 19,5.56700338 19,7.5 C19,8.89619798 18.1824737,10.1014525 17,10.6631844 Z" id="Combined-Shape" fill="#335EEA"></path>
    </g>
</svg>

<svg width="24" height="24" viewBox="0 0 24 24" xmlns="http://www.w3.org/2000/svg"><g fill="none" fill-rule="evenodd"><path d="M0 0h24v24H0z"/><path d="M21 10.663V19a2 2 0 01-2 2H9a2 2 0 01-2-2v-8.337A3.5 3.5 0 018.5 4h11a3.5 3.5 0 011.5 6.663z" fill="#335EEA" opacity=".3"/><path d="M17 10.663V19a2 2 0 01-2 2H5a2 2 0 01-2-2v-8.337A3.5 3.5 0 014.5 4h11a3.5 3.5 0 011.5 6.663z" fill="#335EEA"/></g></svg>
